icons/Folder-Cloud.svg

<svg width="24" height="24" viewBox="0 0 24 24" fill="none" xmlns="http://www.w3.org/2000/svg">
<g id="Folder-Cloud">
<path id="Vector" d="M11 18.5H6C5.46957 18.5 4.96086 18.2893 4.58579 17.9142C4.21071 17.5391 4 17.0304 4 16.5V7.5C4 6.96957 4.21071 6.46086 4.58579 6.08579C4.96086 5.71071 5.46957 5.5 6 5.5H10.17C10.4339 5.49979 10.6953 5.55182 10.939 5.65308C11.1827 5.75434 11.4039 5.90283 11.59 6.09L13.41 7.91C13.5961 8.09717 13.8173 8.24566 14.061 8.34692C14.3047 8.44818 14.5661 8.50021 14.83 8.5H18C18.5304 8.5 19.0391 8.71071 19.4142 9.08579C19.7893 9.46086 20 9.96957 20 10.5V13.5" stroke="#00153F" stroke-width="1.5" stroke-linecap="round" stroke-linejoin="round"/>
<path id="Vector_2" d="M18.91 16.32H18.34C18.345 16.2301 18.345 16.1399 18.34 16.05C18.3576 15.8245 18.3285 15.5979 18.2543 15.3842C18.1801 15.1706 18.0626 14.9746 17.909 14.8085C17.7555 14.6425 17.5693 14.51 17.3621 14.4194C17.1549 14.3288 16.9311 14.282 16.705 14.282C16.4788 14.282 16.2551 14.3288 16.0479 14.4194C15.8407 14.51 15.6545 14.6425 15.5009 14.8085C15.3474 14.9746 15.2299 15.1706 15.1557 15.3842C15.0815 15.5979 15.0523 15.8245 15.07 16.05C15.0602 16.1397 15.0602 16.2303 15.07 16.32C14.7809 16.32 14.5037 16.4348 14.2992 16.6393C14.0948 16.8437 13.98 17.1209 13.98 17.41C13.98 17.6991 14.0948 17.9763 14.2992 18.1808C14.5037 18.3852 14.7809 18.5 15.07 18.5H18.89C19.1791 18.5 19.4563 18.3852 19.6607 18.1808C19.8652 17.9763 19.98 17.6991 19.98 17.41C19.98 17.1209 19.8652 16.8437 19.6607 16.6393C19.4563 16.4348 19.1791 16.32 18.89 16.32H18.91Z" stroke="#00153F" stroke-width="1.5" stroke-linecap="round" stroke-linejoin="round"/>
</g>
</svg>

<svg xmlns="http://www.w3.org/2000/svg" fill="none" viewBox="0 0 24 24"><g stroke="currentColor" stroke-linecap="round" stroke-linejoin="round" stroke-width="1.5"><path d="M11 18.5H6a2 2 0 0 1-2-2v-9a2 2 0 0 1 2-2h4.17a2 2 0 0 1 1.42.59l1.82 1.82a2 2 0 0 0 1.42.59H18a2 2 0 0 1 2 2v3"/><path d="M18.91 16.32h-.57c.005-.09.005-.18 0-.27a1.64 1.64 0 1 0-3.27 0c-.01.09-.01.18 0 .27a1.09 1.09 0 1 0 0 2.18h3.82a1.09 1.09 0 1 0 0-2.18h.02Z"/></g></svg>
